; G-Code generated by Simplify3D(R) Version 4.0.1
; Apr 10, 2019 at 6:39:05 PM
; Settings Summary
;   processName,Process2
;   applyToModels,Gcodereader
;   profileName,X400_DD3_PLA (modified)
;   profileVersion,2016-08-22 10:18:16
;   baseProfile,German RepRap X400 (modified)
;   printMaterial,
;   printQuality,
;   printExtruders,
;   extruderName,Primary Extruder
;   extruderToolheadNumber,0
;   extruderDiameter,0.4
;   extruderAutoWidth,0
;   extruderWidth,0.5
;   extrusionMultiplier,0.9
;   extruderUseRetract,1
;   extruderRetractionDistance,0.7
;   extruderExtraRestartDistance,0
;   extruderRetractionZLift,0
;   extruderRetractionSpeed,5000
;   extruderUseCoasting,0
;   extruderCoastingDistance,0.2
;   extruderUseWipe,0
;   extruderWipeDistance,1
;   primaryExtruder,0
;   layerHeight,0.2
;   topSolidLayers,3
;   bottomSolidLayers,3
;   perimeterOutlines,2
;   printPerimetersInsideOut,1
;   startPointOption,2
;   startPointOriginX,0
;   startPointOriginY,0
;   sequentialIslands,1
;   spiralVaseMode,0
;   firstLayerHeightPercentage,100
;   firstLayerWidthPercentage,100
;   firstLayerUnderspeed,1
;   useRaft,1
;   raftExtruder,0
;   raftTopLayers,2
;   raftBaseLayers,2
;   raftOffset,5
;   raftSeparationDistance,0.2
;   raftTopInfill,100
;   aboveRaftSpeedMultiplier,0.3
;   useSkirt,1
;   skirtExtruder,0
;   skirtLayers,1
;   skirtOutlines,4
;   skirtOffset,2
;   usePrimePillar,0
;   primePillarExtruder,999
;   primePillarWidth,12
;   primePillarLocation,7
;   primePillarSpeedMultiplier,1
;   useOozeShield,0
;   oozeShieldExtruder,999
;   oozeShieldOffset,2
;   oozeShieldOutlines,1
;   oozeShieldSidewallShape,1
;   oozeShieldSidewallAngle,30
;   oozeShieldSpeedMultiplier,1
;   infillExtruder,0
;   internalInfillPattern,Rectilinear
;   externalInfillPattern,Rectilinear
;   infillPercentage,30
;   outlineOverlapPercentage,25
;   infillExtrusionWidthPercentage,100
;   minInfillLength,2
;   infillLayerInterval,1
;   internalInfillAngles,45,-45
;   overlapInternalInfillAngles,0
;   externalInfillAngles,45,-45
;   generateSupport,1
;   supportExtruder,0
;   supportInfillPercentage,70
;   supportExtraInflation,0
;   supportBaseLayers,0
;   denseSupportExtruder,0
;   denseSupportLayers,0
;   denseSupportInfillPercentage,70
;   supportLayerInterval,1
;   supportHorizontalPartOffset,0.5
;   supportUpperSeparationLayers,1
;   supportLowerSeparationLayers,2
;   supportType,0
;   supportGridSpacing,1
;   maxOverhangAngle,45
;   supportAngles,45
;   temperatureName,Primary Extruder,Heated Bed
;   temperatureNumber,0,0
;   temperatureSetpointCount,1,1
;   temperatureSetpointLayers,1,1
;   temperatureSetpointTemperatures,205,60
;   temperatureStabilizeAtStartup,1,1
;   temperatureHeatedBed,0,1
;   temperatureRelayBetweenLayers,0,0
;   temperatureRelayBetweenLoops,0,0
;   fanLayers,1
;   fanSpeeds,0
;   blipFanToFullPower,0
;   adjustSpeedForCooling,1
;   minSpeedLayerTime,25
;   minCoolingSpeedSlowdown,20
;   increaseFanForCooling,0
;   minFanLayerTime,45
;   maxCoolingFanSpeed,100
;   increaseFanForBridging,0
;   bridgingFanSpeed,100
;   use5D,1
;   relativeEdistances,0
;   allowEaxisZeroing,1
;   independentExtruderAxes,0
;   includeM10123,0
;   stickySupport,1
;   applyToolheadOffsets,0
;   gcodeXoffset,0
;   gcodeYoffset,0
;   gcodeZoffset,0
;   overrideMachineDefinition,1
;   machineTypeOverride,0
;   strokeXoverride,360
;   strokeYoverride,380
;   strokeZoverride,330
;   originOffsetXoverride,0
;   originOffsetYoverride,0
;   originOffsetZoverride,0
;   homeXdirOverride,-1
;   homeYdirOverride,-1
;   homeZdirOverride,-1
;   flipXoverride,-1
;   flipYoverride,1
;   flipZoverride,1
;   toolheadOffsets,0,0|0,0|0,0|0,0|0,0|0,0
;   overrideFirmwareConfiguration,1
;   firmwareTypeOverride,RepRap (Marlin/Repetier/Sprinter)
;   GPXconfigOverride,r2
;   baudRateOverride,250000
;   overridePrinterModels,1
;   printerModelsOverride
;   startingGcode,G28 ; home all axes,G0 Z1 ; Z Lift
;   layerChangeGcode,
;   retractionGcode,
;   toolChangeGcode,
;   endingGcode,G28 X0 ; home X axis,G28 Y0 ; home Y axis,M104 S0 ; turn off extruder,M140 S0 ; turn off bed,M106 S0 ; turn off fan,M84 ; disable motors
;   exportFileFormat,gcode
;   celebration,0
;   celebrationSong,Take On Me
;   postProcessing,
;   defaultSpeed,2400
;   outlineUnderspeed,0.8
;   solidInfillUnderspeed,0.8
;   supportUnderspeed,0.8
;   rapidXYspeed,3000
;   rapidZspeed,300
;   minBridgingArea,50
;   bridgingExtraInflation,2
;   bridgingExtrusionMultiplier,0.8
;   bridgingSpeedMultiplier,1.3
;   useFixedBridgingAngle,0
;   fixedBridgingAngle,0
;   applyBridgingToPerimeters,0
;   filamentDiameters,1.74|1.74|1.74|1.74|1.74|1.74
;   filamentPricesPerKg,65|65|65|65|65|65
;   filamentDensities,1.25|1.25|1.25|1.25|1.25|1.25
;   useMinPrintHeight,0
;   minPrintHeight,0
;   useMaxPrintHeight,0
;   maxPrintHeight,0
;   useDiaphragm,0
;   diaphragmLayerInterval,1
;   robustSlicing,1
;   mergeAllIntoSolid,0
;   onlyRetractWhenCrossingOutline,0
;   retractBetweenLayers,0
;   useRetractionMinTravel,1
;   retractionMinTravel,3
;   retractWhileWiping,0
;   onlyWipeOutlines,1
;   avoidCrossingOutline,0
;   maxMovementDetourFactor,3
;   toolChangeRetractionDistance,0.7
;   toolChangeExtraRestartDistance,0
;   toolChangeRetractionSpeed,5000
;   externalThinWallType,0
;   internalThinWallType,2
;   thinWallAllowedOverlapPercentage,10
;   singleExtrusionMinLength,1
;   singleExtrusionMinPrintingWidthPercentage,50
;   singleExtrusionMaxPrintingWidthPercentage,200
;   singleExtrusionEndpointExtension,0.2
;   horizontalSizeCompensation,0
G90
M82
M106 S0
M140 S60
M190 S60
M104 S205 T0
M109 S205 T0
G28 ; home all axes
G0 Z1 ; Z Lift
G92 E0
G1 E-0.7000 F5000
G1 Z0.500 F300
; process Process2
; layer 1, Z = 0.500
T0
; tool H0.500 W0.500
; skirt
G1 X151.109 Y156.516 F3000
G1 E0.0000 F1500
G92 E0
G1 X151.752 Y156.250 E0.0659 F2400
G1 X208.248 Y156.250 E5.4116
G1 X208.891 Y156.516 E5.4775
G1 X213.484 Y161.109 E6.0921
G1 X213.750 Y161.752 E6.1579
G1 X213.750 Y218.248 E11.5036
G1 X213.484 Y218.891 E11.5695
G1 X208.891 Y223.484 E12.1841
G1 X208.248 Y223.750 E12.2500
G1 X151.752 Y223.750 E17.5957
G1 X151.109 Y223.484 E17.6616
G1 X146.516 Y218.891 E18.2762
G1 X146.250 Y218.248 E18.3420
G1 X146.250 Y161.752 E23.6877
G1 X146.516 Y161.109 E23.7536
G1 X151.109 Y156.516 E24.3682
G1 X151.392 Y156.940 F3000
G92 E0
G1 X151.852 Y156.750 E0.0471 F2400
G1 X208.148 Y156.750 E5.3739
G1 X208.608 Y156.940 E5.4210
G1 X213.060 Y161.392 E6.0168
G1 X213.250 Y161.852 E6.0638
G1 X213.250 Y218.148 E11.3907
G1 X213.060 Y218.608 E11.4378
G1 X208.608 Y223.060 E12.0335
G1 X208.148 Y223.250 E12.0806
G1 X151.852 Y223.250 E17.4075
G1 X151.392 Y223.060 E17.4545
G1 X146.940 Y218.608 E18.0503
G1 X146.750 Y218.148 E18.0974
G1 X146.750 Y161.852 E23.4242
G1 X146.940 Y161.392 E23.4713
G1 X151.392 Y156.940 E24.0671
G1 X151.676 Y157.364 F3000
G92 E0
G1 X151.951 Y157.250 E0.0282 F2400
G1 X208.049 Y157.250 E5.3363
G1 X208.324 Y157.364 E5.3645
G1 X212.636 Y161.676 E5.9415
G1 X212.750 Y161.951 E5.9697
G1 X212.750 Y218.049 E11.2778
G1 X212.636 Y218.324 E11.3060
G1 X208.324 Y222.636 E11.8830
G1 X208.049 Y222.750 E11.9112
G1 X151.951 Y222.750 E17.2193
G1 X151.676 Y222.636 E17.2475
G1 X147.364 Y218.324 E17.8244
G1 X147.250 Y218.049 E17.8527
G1 X147.250 Y161.951 E23.1607
G1 X147.364 Y161.676 E23.1890
G1 X151.676 Y157.364 E23.7659
G1 X151.959 Y157.788 F3000
G92 E0
G1 X152.051 Y157.750 E0.0094 F2400
G1 X207.949 Y157.750 E5.2987
G1 X208.041 Y157.788 E5.3081
G1 X212.212 Y161.959 E5.8662
G1 X212.250 Y162.051 E5.8756
G1 X212.250 Y217.949 E11.1649
G1 X212.212 Y218.041 E11.1743
G1 X208.041 Y222.212 E11.7324
G1 X207.949 Y222.250 E11.7418
G1 X152.051 Y222.250 E17.0310
G1 X151.959 Y222.212 E17.0405
G1 X147.788 Y218.041 E17.5986
G1 X147.750 Y217.949 E17.6080
G1 X147.750 Y162.051 E22.8972
G1 X147.788 Y161.959 E22.9066
G1 X151.959 Y157.788 E23.4648
; tool H0.500 W0.800
; raft
G1 X153.095 Y160.400 F3000
G92 E0
G1 X206.905 Y160.400 E8.1467 F600
G1 X209.600 Y163.095 E8.7237
G1 X209.600 Y216.905 E16.8704
G1 X206.905 Y219.600 E17.4473
G1 X153.095 Y219.600 E25.5941
G1 X150.400 Y216.905 E26.1710
G1 X150.400 Y163.095 E34.3177
G1 X153.095 Y160.400 E34.8947
G92 E0
G1 E-0.7000 F5000
G1 X174.600 Y184.600 F3000
G1 E0.0000 F5000
G92 E0
G1 X174.600 Y195.400 E1.6351 F600
G1 X185.400 Y195.400 E3.2702
G1 X185.400 Y184.600 E4.9052
G1 X174.600 Y184.600 E6.5403
G92 E0
G1 E-0.7000 F5000
G1 X186.200 Y185.429 F3000
G1 E0.0000 F5000
G92 E0
G1 X208.800 Y185.429 E3.4215 F600
G1 X208.800 Y187.714 E3.7676
G1 X186.200 Y187.714 E7.1891
G1 X186.200 Y190.000 E7.5352
G1 X208.800 Y190.000 E10.9567
G1 X208.800 Y192.286 E11.3028
G1 X186.200 Y192.286 E14.7243
G92 E0
G1 E-0.7000 F5000
G1 X207.945 Y217.429 F3000
G1 E0.0000 F5000
G92 E0
G1 X152.055 Y217.429 E8.4616 F600
G1 X151.200 Y216.574 E8.6446
G1 X151.200 Y215.143 E8.8613
G1 X208.800 Y215.143 E17.5817
G1 X208.800 Y212.857 E17.9277
G1 X151.200 Y212.857 E26.6481
G1 X151.200 Y210.571 E26.9942
G1 X208.800 Y210.571 E35.7146
G1 X208.800 Y208.286 E36.0606
G1 X151.200 Y208.286 E44.7810
G1 X151.200 Y206.000 E45.1271
G1 X208.800 Y206.000 E53.8475
G1 X208.800 Y203.714 E54.1935
G1 X151.200 Y203.714 E62.9139
G1 X151.200 Y201.429 E63.2600
G1 X208.800 Y201.429 E71.9804
G1 X208.800 Y199.143 E72.3264
G1 X151.200 Y199.143 E81.0469
G1 X151.200 Y196.857 E81.3929
G1 X208.800 Y196.857 E90.1133
G1 X208.800 Y194.571 E90.4594
G1 X186.200 Y194.571 E93.8809
G1 X186.200 Y196.200 E94.1275
G1 X173.800 Y196.200 E96.0048
G1 X173.800 Y194.571 E96.2513
G1 X151.200 Y194.571 E99.6729
G1 X151.200 Y192.286 E100.0189
G1 X173.800 Y192.286 E103.4405
G1 X173.800 Y190.000 E103.7865
G1 X151.200 Y190.000 E107.2081
G1 X151.200 Y187.714 E107.5541
G1 X173.800 Y187.714 E110.9757
G1 X173.800 Y185.429 E111.3217
G1 X151.200 Y185.429 E114.7433
G1 X151.200 Y183.143 E115.0893
G1 X208.800 Y183.143 E123.8097
G1 X208.800 Y180.857 E124.1558
G1 X151.200 Y180.857 E132.8762
G1 X151.200 Y178.571 E133.2222
G1 X208.800 Y178.571 E141.9426
G1 X208.800 Y176.286 E142.2887
G1 X151.200 Y176.286 E151.0091
G1 X151.200 Y174.000 E151.3551
G1 X208.800 Y174.000 E160.0755
G1 X208.800 Y171.714 E160.4216
G1 X151.200 Y171.714 E169.1420
G1 X151.200 Y169.429 E169.4880
G1 X208.800 Y169.429 E178.2084
G1 X208.800 Y167.143 E178.5545
G1 X151.200 Y167.143 E187.2749
G1 X151.200 Y164.857 E187.6209
G1 X208.800 Y164.857 E196.3413
G1 X208.800 Y163.426 E196.5580
G1 X207.945 Y162.571 E196.7410
G1 X152.055 Y162.571 E205.2026
; layer 2, Z = 1.000
G1 X150.400 Y163.095 F3000
G1 Z1.000 F300
G92 E0
G1 X153.095 Y160.400 E0.5769 F600
G1 X206.905 Y160.400 E8.7237
G1 X209.600 Y163.095 E9.3006
G1 X209.600 Y216.905 E17.4473
G1 X206.905 Y219.600 E18.0243
G1 X153.095 Y219.600 E26.1710
G1 X150.400 Y216.905 E26.7479
G1 X150.400 Y163.095 E34.8947
G92 E0
G1 E-0.7000 F5000
G1 X174.600 Y184.600 F3000
G1 E0.0000 F5000
G92 E0
G1 X174.600 Y195.400 E1.6351 F600
G1 X185.400 Y195.400 E3.2702
G1 X185.400 Y184.600 E4.9052
G1 X174.600 Y184.600 E6.5403
G92 E0
G1 E-0.7000 F5000
G1 X186.200 Y185.429 F3000
G1 E0.0000 F5000
G92 E0
G1 X208.800 Y185.429 E3.4215 F600
G1 X208.800 Y187.714 E3.7676
G1 X186.200 Y187.714 E7.1891
G1 X186.200 Y190.000 E7.5352
G1 X208.800 Y190.000 E10.9567
G1 X208.800 Y192.286 E11.3028
G1 X186.200 Y192.286 E14.7243
G92 E0
G1 E-0.7000 F5000
G1 X207.945 Y217.429 F3000
G1 E0.0000 F5000
G92 E0
G1 X152.055 Y217.429 E8.4616 F600
G1 X151.200 Y216.574 E8.6446
G1 X151.200 Y215.143 E8.8613
G1 X208.800 Y215.143 E17.5817
G1 X208.800 Y212.857 E17.9277
G1 X151.200 Y212.857 E26.6481
G1 X151.200 Y210.571 E26.9942
G1 X208.800 Y210.571 E35.7146
G1 X208.800 Y208.286 E36.0606
G1 X151.200 Y208.286 E44.7810
G1 X151.200 Y206.000 E45.1271
G1 X208.800 Y206.000 E53.8475
G1 X208.800 Y203.714 E54.1935
G1 X151.200 Y203.714 E62.9139
G1 X151.200 Y201.429 E63.2600
G1 X208.800 Y201.429 E71.9804
G1 X208.800 Y199.143 E72.3264
G1 X151.200 Y199.143 E81.0469
G1 X151.200 Y196.857 E81.3929
G1 X208.800 Y196.857 E90.1133
G1 X208.800 Y194.571 E90.4594
G1 X186.200 Y194.571 E93.8809
G1 X186.200 Y196.200 E94.1275
G1 X173.800 Y196.200 E96.0048
G1 X173.800 Y194.571 E96.2513
G1 X151.200 Y194.571 E99.6729
G1 X151.200 Y192.286 E100.0189
G1 X173.800 Y192.286 E103.4405
G1 X173.800 Y190.000 E103.7865
G1 X151.200 Y190.000 E107.2081
G1 X151.200 Y187.714 E107.5541
G1 X173.800 Y187.714 E110.9757
G1 X173.800 Y185.429 E111.3217
G1 X151.200 Y185.429 E114.7433
G1 X151.200 Y183.143 E115.0893
G1 X208.800 Y183.143 E123.8097
G1 X208.800 Y180.857 E124.1558
G1 X151.200 Y180.857 E132.8762
G1 X151.200 Y178.571 E133.2222
G1 X208.800 Y178.571 E141.9426
G1 X208.800 Y176.286 E142.2887
G1 X151.200 Y176.286 E151.0091
G1 X151.200 Y174.000 E151.3551
G1 X208.800 Y174.000 E160.0755
G1 X208.800 Y171.714 E160.4216
G1 X151.200 Y171.714 E169.1420
G1 X151.200 Y169.429 E169.4880
G1 X208.800 Y169.429 E178.2084
G1 X208.800 Y167.143 E178.5545
G1 X151.200 Y167.143 E187.2749
G1 X151.200 Y164.857 E187.6209
G1 X208.800 Y164.857 E196.3413
G1 X208.800 Y163.426 E196.5580
G1 X207.945 Y162.571 E196.7410
G1 X152.055 Y162.571 E205.2026
G92 E0
G1 E-0.7000 F5000
; layer 3, Z = 1.222
; tool H0.222 W0.400
G1 X185.200 Y185.018 F3000
G1 Z1.222 F300
G1 E0.0000 F5000
G92 E0
G1 X209.800 Y209.618 E1.1704 F1800
G1 X209.800 Y210.183 E1.1895
G1 X185.200 Y185.583 E2.3599
G1 X185.200 Y186.149 E2.3790
G1 X209.800 Y210.749 E3.5494
G1 X209.800 Y211.315 E3.5684
G1 X185.200 Y186.715 E4.7389
G1 X185.200 Y187.280 E4.7579
G1 X209.800 Y211.880 E5.9284
G1 X209.800 Y212.446 E5.9474
G1 X185.200 Y187.846 E7.1178
G1 X185.200 Y188.412 E7.1369
G1 X209.800 Y213.012 E8.3073
G1 X209.800 Y213.577 E8.3263
G1 X185.200 Y188.977 E9.4968
G1 X185.200 Y189.543 E9.5158
G1 X209.800 Y214.143 E10.6863
G1 X209.800 Y214.709 E10.7053
G1 X185.200 Y190.109 E11.8758
G1 X185.200 Y190.675 E11.8948
G1 X209.800 Y215.275 E13.0652
G1 X209.800 Y215.840 E13.0843
G1 X185.200 Y191.240 E14.2547
G1 X185.200 Y191.806 E14.2737
G1 X209.800 Y216.406 E15.4442
G1 X209.800 Y216.972 E15.4632
G1 X185.200 Y192.372 E16.6337
G1 X185.200 Y192.937 E16.6527
G1 X209.525 Y217.263 E17.8101
G1 X209.243 Y217.546 E17.8235
G1 X185.200 Y193.503 E18.9675
G1 X185.200 Y194.069 E18.9865
G1 X208.960 Y217.828 E20.1170
G1 X208.677 Y218.111 E20.1304
G1 X185.200 Y194.634 E21.2474
G1 X185.200 Y195.200 E21.2665
G1 X208.394 Y218.394 E22.3700
G1 X208.111 Y218.677 E22.3835
G1 X184.634 Y195.200 E23.5005
G1 X184.069 Y195.200 E23.5195
G1 X207.828 Y218.960 E24.6500
G1 X207.546 Y219.243 E24.6635
G1 X183.503 Y195.200 E25.8074
G1 X182.937 Y195.200 E25.8264
G1 X207.263 Y219.525 E26.9838
G1 X206.988 Y219.800 E26.9969
G1 X206.972 Y219.800 E26.9974
G1 X182.372 Y195.200 E28.1679
G1 X181.806 Y195.200 E28.1869
G1 X206.406 Y219.800 E29.3574
G1 X205.840 Y219.800 E29.3764
G1 X181.240 Y195.200 E30.5468
G1 X180.675 Y195.200 E30.5659
G1 X205.275 Y219.800 E31.7363
G1 X204.709 Y219.800 E31.7553
G1 X180.109 Y195.200 E32.9258
G1 X179.543 Y195.200 E32.9448
G1 X204.143 Y219.800 E34.1153
G1 X203.577 Y219.800 E34.1343
G1 X178.977 Y195.200 E35.3047
G1 X178.412 Y195.200 E35.3238
G1 X203.012 Y219.800 E36.4942
G1 X202.446 Y219.800 E36.5133
G1 X177.846 Y195.200 E37.6837
G1 X177.280 Y195.200 E37.7027
G1 X201.880 Y219.800 E38.8732
G1 X201.315 Y219.800 E38.8922
G1 X176.715 Y195.200 E40.0627
G1 X176.149 Y195.200 E40.0817
G1 X200.749 Y219.800 E41.2521
G1 X200.183 Y219.800 E41.2712
G1 X175.583 Y195.200 E42.4416
G92 E0
G1 E-0.7000 F5000
G1 X153.231 Y219.800 F3000
G1 E0.0000 F5000
G92 E0
G1 X150.200 Y216.769 E0.1442 F1800
G1 X150.200 Y216.203 E0.1633
G1 X153.797 Y219.800 E0.3344
G1 X154.363 Y219.800 E0.3534
